!!!!SEGMENT: pl-wtm--r-2133_wysocki-kasper-napoleon--marsz.krn
!!!cenid: 18xx:4364
!!!COM: Wysocki, Kasper Napoleon
!!!COM-rismID: pe41024789
!!!CDT: 1810/12/06-1850/09/21
!!!CNT: Polish
!!!OTL: Marsz
!!!PDT:
!!!AGN: Secular; March
!!!SMS-siglum: PL-Wtm
!!!SMS-shelfmark: R 2133
!!!SMS-shelfwork: W
!!!SMS-variant:
!!!SMS-altvar:
!!!NIFC-rismSourceID: 1001139250
!!!NIFC-rismChildID: 1001139250
!!!NIFC-islandoraID: pl-wtm:29918
!!!URL-pdf-islandora: https://repozytorium.nifc.pl/islandora/object/pl-wtm:29918/datastream/PDF/view
!!!URL-scan: https://polish.musicsources.pl/pl/lokalizacje/galeria/rekopisy/6563/2 @EN{Scan on Polish Music Sources Website} @PL{Skany w portalu Dziedzictwo Muzyki Polskiej w otwartym dostępie}
!!!ONB-nifc:
!!!AIN: 2 piano
!!!key: F
**kern	**kern	**dynam
*part2	*part1	*part1
*staff2	*staff1	*
*I"fortepian	*I"fortepian	*
*I'[pf]	*I'[pf]	*
*ICklav	*ICklav	*
*Ipiano	*Ipiano	*
*clefF4	*clefG2	*
*k[b-]	*k[b-]	*
*F:	*F:	*
*M4/4	*M4/4	*
*met(c)	*met(c)	*
=1	=1	=1
*tremolo	*tremolo	*
32FF/LLL 32C 32F	32A/LLL 32c 32f	<
32FF/ 32C 32F	32A/ 32c 32f	.
32FF/ 32C 32F	32A/ 32c 32f	.
32FF/ 32C 32F	32A/ 32c 32f	.
32FF/ 32C 32F	32A/ 32c 32f	.
32FF/ 32C 32F	32A/ 32c 32f	.
32FF/ 32C 32F	32A/ 32c 32f	.
32FF/ 32C 32F	32A/ 32c 32f	.
32FF/ 32C 32F	32A/ 32c 32f	.
32FF/ 32C 32F	32A/ 32c 32f	.
32FF/ 32C 32F	32A/ 32c 32f	.
32FF/ 32C 32F	32A/ 32c 32f	.
32FF/ 32C 32F	32A/ 32c 32f	.
32FF/ 32C 32F	32A/ 32c 32f	.
32FF/ 32C 32F	32A/ 32c 32f	.
32FF/ 32C 32F	32A/ 32c 32f	.
32FF/ 32C 32F	32A/ 32c 32f	[ >
32FF/ 32C 32F	32A/ 32c 32f	.
32FF/ 32C 32F	32A/ 32c 32f	.
32FF/ 32C 32F	32A/ 32c 32f	.
32FF/ 32C 32F	32A/ 32c 32f	.
32FF/ 32C 32F	32A/ 32c 32f	.
32FF/ 32C 32F	32A/ 32c 32f	.
32FF/ 32C 32F	32A/ 32c 32f	.
32FF/ 32C 32F	32A/ 32c 32f	.
32FF/ 32C 32F	32A/ 32c 32f	.
32FF/ 32C 32F	32A/ 32c 32f	.
32FF/ 32C 32F	32A/ 32c 32f	.
32FF/ 32C 32F	32A/ 32c 32f	.
32FF/ 32C 32F	32A/ 32c 32f	.
32FF/ 32C 32F	32A/ 32c 32f	.
32FF/JJJ 32C 32F	32A/JJJ 32c 32f	]]
=2	=2	=2
4GG/ 4C 4G	4B-/ 4c 4e	.
4r	4r	.
2r	2r	.
=3	=3	=3
32EE/LLL 32C 32E	32B-/LLL 32c 32g 32b-	<
32EE/ 32C 32E	32B-/ 32c 32g 32b-	.
32EE/ 32C 32E	32B-/ 32c 32g 32b-	.
32EE/ 32C 32E	32B-/ 32c 32g 32b-	.
32EE/ 32C 32E	32B-/ 32c 32g 32b-	.
32EE/ 32C 32E	32B-/ 32c 32g 32b-	.
32EE/ 32C 32E	32B-/ 32c 32g 32b-	.
32EE/ 32C 32E	32B-/ 32c 32g 32b-	.
32EE/ 32C 32E	32B-/ 32c 32g 32b-	.
32EE/ 32C 32E	32B-/ 32c 32g 32b-	.
32EE/ 32C 32E	32B-/ 32c 32g 32b-	.
32EE/ 32C 32E	32B-/ 32c 32g 32b-	.
32EE/ 32C 32E	32B-/ 32c 32g 32b-	.
32EE/ 32C 32E	32B-/ 32c 32g 32b-	.
32EE/ 32C 32E	32B-/ 32c 32g 32b-	.
32EE/ 32C 32E	32B-/ 32c 32g 32b-	.
32EE/ 32C 32E	32B-/ 32c 32g 32b-	[ >
32EE/ 32C 32E	32B-/ 32c 32g 32b-	.
32EE/ 32C 32E	32B-/ 32c 32g 32b-	.
32EE/ 32C 32E	32B-/ 32c 32g 32b-	.
32EE/ 32C 32E	32B-/ 32c 32g 32b-	.
32EE/ 32C 32E	32B-/ 32c 32g 32b-	.
32EE/ 32C 32E	32B-/ 32c 32g 32b-	.
32EE/ 32C 32E	32B-/ 32c 32g 32b-	.
32EE/ 32C 32E	32B-/ 32c 32g 32b-	.
32EE/ 32C 32E	32B-/ 32c 32g 32b-	.
32EE/ 32C 32E	32B-/ 32c 32g 32b-	.
32EE/ 32C 32E	32B-/ 32c 32g 32b-	.
32EE/ 32C 32E	32B-/ 32c 32g 32b-	.
32EE/ 32C 32E	32B-/ 32c 32g 32b-	.
32EE/ 32C 32E	32B-/ 32c 32g 32b-	.
32EE/JJJ 32C 32E	32B-/JJJ 32c 32g 32b-	]]
=4	=4	=4
4FF/ 4C 4F	4A/ 4c 4f 4a	.
4r	4r	.
2r	2r	.
=5	=5	=5
32BB-\LLL 32E 32B-	32d/LLL 32e 32g 32dd	.
32BB-\ 32E 32B-	32d/ 32e 32g 32dd	.
32BB-\ 32E 32B-	32d/ 32e 32g 32dd	.
32BB-\ 32E 32B-	32d/ 32e 32g 32dd	.
32BB-\ 32E 32B-	32d/ 32e 32g 32dd	.
32BB-\ 32E 32B-	32d/ 32e 32g 32dd	.
32BB-\ 32E 32B-	32d/ 32e 32g 32dd	.
32BB-\ 32E 32B-	32d/ 32e 32g 32dd	.
32BB-\ 32E 32B-	32d/ 32e 32g 32dd	.
32BB-\ 32E 32B-	32d/ 32e 32g 32dd	.
32BB-\ 32E 32B-	32d/ 32e 32g 32dd	.
32BB-\ 32E 32B-	32d/ 32e 32g 32dd	.
32BB-\ 32E 32B-	32d/ 32e 32g 32dd	.
32BB-\ 32E 32B-	32d/ 32e 32g 32dd	.
32BB-\ 32E 32B-	32d/ 32e 32g 32dd	.
32BB-\ 32E 32B-	32d/ 32e 32g 32dd	.
32BB-\ 32E 32B-	32d/ 32e 32g 32dd	.
32BB-\ 32E 32B-	32d/ 32e 32g 32dd	.
32BB-\ 32E 32B-	32d/ 32e 32g 32dd	.
32BB-\ 32E 32B-	32d/ 32e 32g 32dd	.
32BB-\ 32E 32B-	32d/ 32e 32g 32dd	.
32BB-\ 32E 32B-	32d/ 32e 32g 32dd	.
32BB-\ 32E 32B-	32d/ 32e 32g 32dd	.
32BB-\ 32E 32B-	32d/ 32e 32g 32dd	.
32BB-\ 32E 32B-	32d/ 32e 32g 32dd	.
32BB-\ 32E 32B-	32d/ 32e 32g 32dd	.
32BB-\ 32E 32B-	32d/ 32e 32g 32dd	.
32BB-\ 32E 32B-	32d/ 32e 32g 32dd	.
32BB-\ 32E 32B-	32d/ 32e 32g 32dd	.
32BB-\ 32E 32B-	32d/ 32e 32g 32dd	.
32BB-\ 32E 32B-	32d/ 32e 32g 32dd	.
32BB-\JJJ 32E 32B-	32d/JJJ 32e 32g 32dd	.
=6	=6	=6
4AA/ 4E 4A	4c#X/ 4e 4a 4cc#X	.
4r	4r	.
4r;	4r;	.
4C/ 4G 4B-	4cn/ 4e 4b- 4ccn	f
=7	=7	=7
2FF\ 2AA 2C 2F 2A	2f\ 2a 2cc 2ff	.
4BBB-/ 4FF 4D	4e\ 4f 4b- 4ee	.
4DD/ 4FF 4BB- 4D	4d\ 4f 4b- 4dd	.
!!LO:LB:g=original	!	!
=8	=8	=8
8.E\L 8.G 8.c	8.g/L 8.b- 8.cc	.
16E\Jk 16G 16c	16g/Jk 16b- 16cc	.
2E\ 2G 2c	2g/ 2b- 2cc	.
8EE/L 8C 8E	8c/L 8g 8b-	.
8FF/J 8C 8F	8c/J 8f 8a	.
=9	=9	=9
2BB-\ 2B-	2d/ 2f 2g	.
2C\ 2B-	2c/ 2e 2g	.
=10	=10	=10
2F\ 2A	2c/ 2f 2a	.
2r	2r	.
=11	=11	=11
32DD/LLL 32D	32A/LLL 32d 32f 32a	.
32DD/ 32D	32A/ 32d 32f 32a	.
32DD/ 32D	32A/ 32d 32f 32a	.
32DD/ 32D	32A/ 32d 32f 32a	.
32DD/ 32D	32A/ 32d 32f 32a	.
32DD/ 32D	32A/ 32d 32f 32a	.
32DD/ 32D	32A/ 32d 32f 32a	.
32DD/JJJ 32D	32A/ 32d 32f 32a	.
32AA/LLL 32A	32A/ 32d 32f 32a	.
32AA/ 32A	32A/ 32d 32f 32a	.
32AA/ 32A	32A/ 32d 32f 32a	.
32AA/ 32A	32A/ 32d 32f 32a	.
32AA/ 32A	32A/ 32d 32f 32a	.
32AA/ 32A	32A/ 32d 32f 32a	.
32AA/ 32A	32A/ 32d 32f 32a	.
32AA/JJJ 32A	32A/ 32d 32f 32a	.
32FF/LLL 32F	32A/ 32d 32f 32a	.
32FF/ 32F	32A/ 32d 32f 32a	.
32FF/ 32F	32A/ 32d 32f 32a	.
32FF/ 32F	32A/ 32d 32f 32a	.
32FF/ 32F	32A/ 32d 32f 32a	.
32FF/ 32F	32A/ 32d 32f 32a	.
32FF/ 32F	32A/ 32d 32f 32a	.
32FF/JJJ 32F	32A/ 32d 32f 32a	.
32DD/LLL 32D	32A/ 32d 32f 32a	.
32DD/ 32D	32A/ 32d 32f 32a	.
32DD/ 32D	32A/ 32d 32f 32a	.
32DD/ 32D	32A/ 32d 32f 32a	.
32DD/ 32D	32A/ 32d 32f 32a	.
32DD/ 32D	32A/ 32d 32f 32a	.
32DD/ 32D	32A/ 32d 32f 32a	.
32DD/JJJ 32D	32A/JJJ 32d 32f 32a	.
=12	=12	=12
4EE/ 4E	4A/ 4c#X 4e 4a	.
4r	4r	.
2r	2r	.
=13	=13	=13
4E\	1d 1e 1g#X 1b- 1ee	<
32BBn\LLL 32Bn	.	[[
32BB\ 32B	.	>
32BB\ 32B	.	.
32BB\ 32B	.	.
32BB\ 32B	.	.
32BB\ 32B	.	.
32BB\ 32B	.	.
32BB\JJJ 32B	.	.
32GG#X\LLL 32G#X	.	.
32GG#\ 32G#	.	.
32GG#\ 32G#	.	.
32GG#\ 32G#	.	.
32GG#\ 32G#	.	.
32GG#\ 32G#	.	.
32GG#\ 32G#	.	.
32GG#\JJJ 32G#	.	.
32EE/LLL 32E	.	.
32EE/ 32E	.	.
32EE/ 32E	.	.
32EE/ 32E	.	.
32EE/ 32E	.	.
32EE/ 32E	.	.
32EE/ 32E	.	.
32EE/JJJ 32E	.	]]
!!LO:LB:g=original	!	!
=14	=14	=14
4AA\ 4A	4e/ 4a 4cc#X 4ee	]
4r	4r	.
4r;	4r;	.
4C\ 4G 4B- 4c	4e\ 4b-X 4ccn	f
=15	=15	=15
2FF\ 2C 2F 2A	2f\ 2a 2cc 2ff	.
4BB-\ 4F 4B-	4e\ 4f 4b- 4ee	.
4D\ 4F 4B-	4d\ 4f 4b- 4dd	.
=16	=16	=16
8.EE/L 8.C 8.E	8.c/L 8.g 8.b- 8.cc	.
16EE/Jk 16C 16E	16c/Jk 16g 16b- 16cc	.
2EE/ 2C 2E	2c/ 2g 2b- 2cc	.
8EE/L 8C 8E	8c/L 8g 8b-	.
8FF/J 8C 8F	8c/J 8f 8a	.
=17	=17	=17
2BB-\ 2B-	2d/ 2f 2g	.
2C\ 2B-	2c/ 2e 2g	.
=18	=18	=18
4F\ 4A	4c/ 4f	.
4r	4r	.
2r	2r	.
*kcancel	*	*
!!LO:LB:g=original	!	!
=19||	=19||	=19||
*k[]	*k[]	*
4D\ 4G 4B	4d/ 4g	.
!	!LO:TX:b:i:t=dolce	!
2GGG/ 2GG	2f\ 2g 2b 2gg	.
8AAA/L 8AA	8f\L 8cc 8ff	.
8BBB/J 8BB	8g\J 8dd	.
=20	=20	=20
4CC/ 4C	4f\ 4g 4cc 4ff	.
2C\ 2G 2c	2e/ 2g 2cc 2ee	sf
4D\ 4G 4B	4f/ 4g 4dd	.
=21	=21	=21
*	*^	*
4E\ 4G 4c	4e/ 4g 4dd	4ryy	.
4G\ 4c	4e/ 4g 4cc	4ryy	.
4E\ 4G 4c	4e/ 4g [4cc	4ryy	.
!	!LO:TUP:a:problem:klamra łukowa	!	!
4C\ 4G 4c	12cc/L]	4e\ 4g 4cc	.
.	12dd/	.	.
.	12ee/J	.	.
*	*v	*v	*
=22	=22	=22
[4GG/ [4G	(4e/ 4g 4cc (4ee	.
8GG/] 8G]	8d/) 8g 8b 8dd)	.
*Xtremolo	*Xtremolo	*
16G\LL	16g/LL	.
16G\JJ	16g/JJ	.
*tremolo	*tremolo	*
!LO:TREM:dots=4	!LO:TREM:dots=4	!
8G\L	8g/L	.
8G\	8g/	.
8G\	8g/	.
8G\J	8g/J	.
=23	=23	=23
2DD/ 2AA 2D	2f\ 2a 2dd 2ff	.
4EE/ 4BB 4E	4e\ 4g#X 4b 4ee	.
4GG#X/ 4E 4G#X	4d\ 4e 4b 4dd	.
!!LO:LB:g=original	!	!
=24	=24	=24
4AA/ 4E 4B	4d/ 4e 4g#X 4dd	.
2AA/ 2E 2A	2c/ 2e 2a 2cc	.
8.FF#X/L 8.F#X	8.c/L 8.e 8.b	.
16FF#/Jk 16F#	16c/Jk 16e 16a	.
=25	=25	=25
*	*^	*
4GG/ 4G	4c/ 4e 4g	4ryy	.
4GG/ 4G	4c/ 4e 4g 4cc	4ryy	.
32GGG/LLL	[4b/	2d\ 2f 2g	>
32GG/	.	.	.
32GGG/	.	.	.
32GG/	.	.	.
32GGG/	.	.	.
32GG/	.	.	.
32GGG/	.	.	.
32GG/	.	.	.
!	!LO:TUP:a:problem:klamra łukowa	!	!
32GGG/	12b/L]	.	.
32GG/	.	.	.
32GGG/	.	.	.
.	12cc/	.	.
32GG/	.	.	.
32GGG/	.	.	.
32GG/	.	.	.
.	12dd/J	.	.
32GGG/	.	.	.
32GG/JJJ	.	.	]]
*	*v	*v	*
=26	=26	=26
4GGG/ 4GG	4B/ 4f 4g 4dd	.
8CC/ 8C	8c/L 8e 8g 8cc	.
*Xtremolo	*	*
16G\LL	16g/L	.
16G\JJ	16g/JJ	.
*tremolo	*	*
!	!LO:TREM:dots=4	!
8G\L	8g/L	.
8G\	8g/	.
8G\	8g/	.
8G\J	8g/J	.
=27	=27	=27
*	*^	*
*	*	*Xtremolo	*
4BB\ 4G 4B	4g/	8f\L	mf
.	.	8f\J	.
!	!	!	!LO:DY:a
4GG\ 4G	2gg/	8f\L 8g 8b	sf
.	.	8f\J 8g 8b	.
4AA\ 4A	.	8f\L 8g 8cc	.
.	.	8f\J 8g 8cc	.
4BB\ 4B	4ff/	8f\L 8g 8dd	.
.	.	8f\J 8g 8dd	.
!!LO:LB:g=original	!	!	!
=28	=28	=28	=28
!	!	!	!LO:DY:a
4C\ 4c	4ff/	8f\L 8g 8cc	sf
.	.	8f\J 8g 8cc	.
4CC/ 4C	2ee/	8e\L 8g 8cc	.
.	.	8e\ 8g 8cc	.
4C\ 4c	.	8e\ 8g 8cc	.
.	.	8e\J 8g 8cc	.
4D\ 4d	4dd/	8f\L 8g 8b	.
.	.	8f\J 8g 8b	.
=29	=29	=29	=29
!	!	!	!LO:DY:a
4E\ 4e	4dd/	8g\L	sf
.	.	8g\J	.
4EE/ 4E	2cc/	8c\L 8g	.
.	.	8c\ 8g	.
4EE/ 4E	.	8c\ 8g	.
.	.	8c\J 8g	.
.	(16qqdd/LL	.	.
.	16qqcc/	.	.
.	16qqb/JJ)	.	.
!	!LO:TUP:a:problem:klamra łukowa	!	!
8EE/L 8E	12cc/L	8c\L 8g	.
.	12dd/	.	.
8CC/J 8C	.	8e\J 8g 8cc	.
.	12ee/J	.	.
=30	=30	=30	=30
4GG/ 4G	4ee/	8e\L 8g 8cc	.
.	.	8e\ 8g 8cc	.
8GG/ 8G	8dd/	8d\J 8g 8b	.
*Xtremolo	*	*	*
16G\LL	16g/LL	8ryy	.
16G\JJ	16g/JJ	.	.
*tremolo	*	*	*
8G\L	8g/L	8ryy	.
8G\	8g/	8ryy	.
8G\	8g/	8ryy	.
8G\J	8g/J	8ryy	.
!!LO:PB:g=original	!	!	!
=31	=31	=31	=31
*	*	*tremolo	*
2DD/ 2AA 2D	2ff/	8f\L 8a	f
.	.	8f\ 8a	.
.	.	8f\ 8a	.
.	.	8f\J 8a	.
*	*	*Xtremolo	*
4EE/ 4BB 4E	4ee/	8d\L 8e 8g#X	.
.	.	8d\ 8e 8g#	.
4GG#X/ 4E 4G#X	4dd/	8d\ 8e 8b	.
.	.	8d\J 8e 8b	.
=32	=32	=32	=32
!	!	!	!LO:DY:a
4AA\ 4E 4B	4dd/	8d\L 8e 8g#X	sf
.	.	8d\J 8e 8g#	.
*	*	*tremolo	*
4AA\ 4E 4A	2cc/	8c\L 8e 8a	.
.	.	8c\ 8e 8a	.
4AA/	.	8c\ 8e 8a	.
.	.	8c\J 8e 8a	.
*	*	*Xtremolo	*
8.FF#X/L 8.F#X	8.b/L	8c\L 8e-X	.
.	.	8c\J 8e-	.
16FF#/Jk 16F#	16a/Jk	.	.
=33	=33	=33	=33
4GG/ 4G	4gn/	8c\L 8en	.
.	.	8c\ 8e	.
4GG/ 4G	4cc/	8c\ 8e 8g	.
.	.	8c\J 8e 8g	.
32GGG/LLL 32GG	[4b/	8d\L 8f 8g	>
32GGG/ 32GG	.	.	.
32GGG/ 32GG	.	.	.
32GGG/ 32GG	.	.	.
32GGG/ 32GG	.	8d\ 8f 8g	.
32GGG/ 32GG	.	.	.
32GGG/ 32GG	.	.	.
32GGG/ 32GG	.	.	.
!	!LO:TUP:a:problem:klamra łukowa	!	!
32GGG/ 32GG	12b/L]	8d\ 8f 8g	.
32GGG/ 32GG	.	.	.
32GGG/ 32GG	.	.	.
.	12cc/	.	.
32GGG/ 32GG	.	.	.
32GGG/ 32GG	.	8d\J 8f 8g	.
32GGG/ 32GG	.	.	.
.	12dd/J	.	.
32GGG/ 32GG	.	.	.
32GGG/JJJ 32GG	.	.	]]
=34	=34	=34	=34
4GGG/ 4GG	4dd/	8B\L 8f 8g	.
.	.	8B\J 8f 8g	.
8CC/ 8C	8cc/	8c\L 8e 8g	.
*Xtremolo	*	*	*
16G\LL	8r	16g\L	.
16G\JJ	.	16g\JJ	.
8G\L	4r	8g\L	.
8G\J	.	8g\	.
!	!	!	!LO:DY:a
8.GGG/L 8.GG	8.ff/L	8f\ 8g 8b	sf
.	.	8f\J 8g	.
16GGG/Jk 16GG	16b/Jk	.	.
!!LO:LB:g=original	!	!	!
=35	=35	=35	=35
4GGG/ 4GG	4dd/	8B\L 8f 8g	.
.	.	8B\J 8f 8g	.
8CC/ 8C	8cc/	8c\L 8e 8g	.
16G\LL	8r	16g\L	.
16G\JJ	.	16g\JJ	.
8G\L	4r	8g\L	.
8G\J	.	8g\	.
8.GGG/L 8.GG	8.ff/L	8f\ 8g 8b	.
.	.	8f\J 8g	.
16GGG/Jk 16GG	16b/Jk	.	.
=36	=36	=36	=36
4CC/ 4C	4cc/	4e\ 4g	.
8.c\L	8.cc/L	4ryy	.
16c\Jk	16cc/Jk	.	.
4c\	4cc/	4ryy	.
4c\	4cc/	4ryy	.
*	*v	*v	*
=37	=37	=37
*	*^	*
4r	4c/ 4cc	4ryy	mf
8.AA-X\L 8.A-X	8.c/L 8.e-X 8.a-X	4r	.
16AA-\Jk 16A-	16c/Jk 16e- 16a-	.	.
4C\ 4c	4e-/ 4a-	4r	.
8.AA-\L 8.E-X 8.A-	8.c/L 8.e- 8.a- 8.cc	4ryy	.
16AA-\Jk 16E- 16A-	16c/Jk 16e- 16a- 16cc	.	.
*	*v	*v	*
=38	=38	=38
4EE-X/ 4BB-X 4E-X 4G	4e-X/ 4g 4b-X 4ee-X	.
8EE-/ 8BB- 8E- 8G	8e-/ 8g 8b- 8ee-	.
8BB-'>\	8B-X<'/	.
8GG'>\L	8G<'/L	.
8BB-'>\	8B-<'/	.
8GG'>\	8G<'/	.
8EE-'>\J	8E-y<'/J	.
!!LO:LB:g=original	!	!
=39	=39	=39
*	*^	*
4r	4c/ 4cc	4ryy	.
8.AA-X\L 8.A-X	8.c/L 8.e 8.a-X	4r	.
16AA-\Jk 16A-	16c/Jk 16e 16a-	.	.
4C\ 4c	4e/ 4a-	4r	.
8.AA-\L 8.E-X 8.A-	8.c/L 8.e 8.a- 8.cc	4ryy	.
16AA-\Jk 16E- 16A-	16c/Jk 16e 16a- 16cc	.	.
*	*v	*v	*
=40	=40	=40
8EE-X\ 8BB-X 8E-X 8G	8e-X/ 8g 8b 8ee-X	.
8EE-\L	8E-y</L	.
8GG\	8G</	.
8BB-X\J	8B-X</J	.
8E-\L	8e-/L	.
8G\	8g/	.
8B-y\	8b/	.
8e-X\J	8ee-/J	.
=41	=41	=41
*	*^	*
4r	4d-X/ 4dd-X	4ryy	.
8.BB-X\L 8.B-X	8.d-/L 8.f 8.b-X	4r	.
16BB-\Jk 16B-	16d-/Jk 16f 16b-	.	.
4D-X\ 4d-X	4d-/ 4f 4b-	4r	.
8.BB-X\L 8.F 8.B-X	8.d-/L 8.f 8.b- 8.dd-	4ryy	.
16BB-\Jk 16F 16B-	16d-/Jk 16f 16b- 16dd-	.	.
*	*v	*v	*
!!LO:LB:g=original	!	!
=42	=42	=42
4FF\ 4AA-X 4C 4A-X	4f\ 4a-X 4cc 4ff	.
8FF/ 8C 8A-	8f/L 8a- 8cc 8ff	.
16F\LL	16f/L	.
16F\JJ	16f/JJ	.
8F\L	8f/L	.
8F\	8f/	.
8F\	8f/	.
8F\J	8f/J	.
=43	=43	=43
*	*^	*
4r	4f\ 4ff	4ryy	f
8.DD-X/L 8.D-X	8.f\L 8.g 8.bn	4r	.
16DD-/Jk 16D-	16f\Jk 16g 16b	.	.
4D-\ 4d-X	4f\ 4g 4b	4r	.
8.DD-/L 8.D-	8.f/L 8.g 8.b 8.ff	4ryy	.
16DD-/Jk 16D-	16f/Jk 16g 16b 16ff	.	.
*	*v	*v	*
=44	=44	=44
4EE/ 4C	4en/ 4g 4cc 4een	.
*8ba	*	*
4CCC/	4cc\ 4ee 4gg 4ccc	.
*X8ba	*	*
2r	2r	.
!!LO:LB:g=original	!	!
=45||	=45||	=45||
*k[b-]	*k[b-]	*
*	*^	*
4FF/	2.cc/	8r	.
!	!LO:TX:b:i:t=dolce	!	!
.	.	8c\ 8f 8a	.
4F\	.	8r	.
.	.	8c\ 8f 8a	.
4A\	.	8r	.
.	.	8c\ 8f 8a	.
4F\	4ff/	8r	.
.	.	8f\ 8a 8cc	.
=46	=46	=46	=46
4FF/	4ff/	8r	.
.	.	8f\ 8a 8cc	.
4F\	8f/L	8r	.
.	8f/J	8A\ 8c	.
4DD/	8f/L	8r	.
.	16g/L	8A\ 8d	.
.	16f/JJ	.	.
4D\	8e/L	8r	.
.	8f/J	8A\ 8d	.
=47	=47	=47	=47
4BBB-/	4g/	8r	.
.	.	8B-\ 8d	.
4BB-/	8.g/L	8r	.
.	.	8B-\ 8d	.
.	16g/Jk	.	.
4D\	4b-/	8r	.
.	.	8d\ 8g	.
4DD/	4a/	8r	.
.	.	8c\ 8d 8f#X	.
=48	=48	=48	=48
4GG/	2g/	8r	.
.	.	8B-\ 8d	.
4G\	.	8r	.
.	.	8B-\ 8d	.
4D\	2r	8r	.
.	.	8B-\ 8d	.
4BB-/	.	8r	.
.	.	8B-\ 8d	.
!!LO:LB:g=original	!	!	!
=49	=49	=49	=49
4GG/	2.dd/	8r	.
.	.	8d\ 8g 8b-	.
4D\	.	8r	.
.	.	8d\ 8g 8b-	.
4G\	.	8r	.
.	.	8d\ 8g 8b-	.
4GG/	8.gg/L	8r	.
.	.	8g\ 8b- 8dd	.
.	16gg/Jk	.	.
=50	=50	=50	=50
4C/	4gg/	8r	.
.	.	8g\ 8b- 8cc	.
4c\	8.cc/L	8r	.
.	.	8e\ 8g 8b-	.
.	16cc/Jk	.	.
4C/	8cc/L	8r	.
.	16dd/L	8g\ 8b-	.
.	16cc/JJ	.	.
4c\	8bn/L	8r	.
.	8cc/J	8e\ 8b-X	.
=51	=51	=51	=51
4F\	4ff/	8r	.
.	.	8f\ 8a 8cc	.
4BB-/	8.f/L	8r	.
.	.	8B-\ 8d	.
.	16g/Jk	.	.
4C/	4a/	8r	.
.	.	8c\ 8f	.
4CC/	4g/	8r	.
.	.	8B-\ 8c 8e	.
*	*v	*v	*
!!LO:PB:g=original	!	!
=52	=52	=52
4FF/	4A/ 4c 4f	p
8.BB-/L	8.B-/L 8.d 8.f	.
16BB-/Jk	16B-/Jk 16d 16g	.
4C/	4c/ 4f 4a	.
4CC/	4B-/ 4c 4e 4g	.
=53	=53	=53
*	*^	*
4FF/	4A/ 4c 4f	2ryy	.
4r	8f/L 8a	.	.
.	8g/J 8b-	.	mf
4C/	4.cc/	4c\ 4f 4a	.
4C/	.	4c\ 4e 4g	.
.	8b-/	.	.
*	*v	*v	*
=54	=54	=54
4F\	4f/ 4a	.
8.F\L 8.c	8.f/L 8.a	p
16G\Jk 16c	16g/Jk 16b-	.
2C\ 2c	4.a\ 4.cc	.
.	8b-/	.
=55	=55	=55
4F\ 4c	4f/ 4a	.
4r	8.cc\L	f
.	16cc\Jk	.
4r	4ff\	.
8.AA\L 8.A	8.g\L 8.cc#X 8.ee	.
16AA\Jk 16A	16g\Jk 16cc# 16ee	.
!!LO:LB:g=original	!	!
=56	=56	=56
4BB-\ 4B-	4f\ 4b- 4dd	.
8.FF#X\L 8.F#X	8.e-X/L 8.a 8.ccn	>
16FF#\Jk 16F#	16e-/Jk 16a 16cc	.
4GG/ 4G	4d/ 4g 4b-	]
8.AA\L 8.A	8.c/L 8.f#X 8.a	.
16AA\Jk 16A	16c/Jk 16f# 16a	.
=57	=57	=57
*	*^	*
2BB-\ 2B-	2d/ 2g	2ryy	.
2BBn/ 2G 2Bn	4.dd/	2d/ 2f 2g	.
.	8cc/	.	.
=58	=58	=58	=58
8C\ 8G 8c	8g/ 8cc	8e\	.
!	!	!	!LO:HP:t=cresc
8CC/L 8C	16c/LL 16cc	4.ryy	<
.	16c/JJ 16cc	.	.
8CC/ 8C	8c/L 8cc	.	.
8CC/J 8C	8c/J 8cc	.	.
8BBBn/L 8BBn	8c/L 8cc	2ryy	.
8CC/ 8C	8c/ 8cc	.	.
8BBB-X/ 8BB-X	8c/ 8cc	.	.
8GGG/J 8GG	8c/J 8cc	.	.
!!LO:LB:g=original	!	!	!
=59	=59	=59	=59
4FFF/ 4FF	2.cc/	8c\L 8f 8a	ff
.	.	8c\ 8f 8a	.
4CC/ 4C	.	8c\ 8f 8a	.
.	.	8c\J 8f 8a	.
4FF/ 4F	.	8c\L 8f 8a	.
.	.	8c\ 8f 8a	.
4r	8.ff/L	8f\ 8a 8cc	.
.	.	8f\J 8a 8cc	.
.	16ff/Jk	.	.
=60	=60	=60	=60
4FFF/ 4CC 4FF	4ff/	8f\L 8a 8cc	.
.	.	8f\J 8a 8cc	.
4FF\ 4F	8.f/L	8A\L 8c	.
.	.	8A\J 8c	.
.	16f/Jk	.	.
4DD/	8f/L	8A\L 8d	.
.	16g/L	8A\ 8d	.
.	16f/JJ	.	.
4D\	8e/L	8A\ 8d	.
.	8f/J	8A\J 8d	.
=61	=61	=61	=61
4BBB-/ 4BB-	4g/	8G\L 8B- 8d	.
.	.	8G\ 8B- 8d	.
4BB-/	8.g/L	8G\ 8B- 8d	.
.	.	8G\J 8B- 8d	.
.	16g/Jk	.	.
4DD/	4b-/	8B-\L 8d 8g	.
.	.	8B-\J 8d 8g	.
4D\	4a/	8A\L 8c 8d 8f#X	.
.	.	8A\J 8c 8d 8f#	.
!!LO:LB:g=original	!	!	!
=62	=62	=62	=62
4GG/	4g/	8G\L 8B- 8d	.
.	.	8B-\ 8d	.
4GG\ 4G	4r	8B-\ 8d	.
.	.	8B-\J 8d	.
*	*	*tremolo	*
4DD/ 4D	2r	8B-\L 8d	.
.	.	8B-\ 8d	.
4BBB-/ 4BB-	.	8B-\ 8d	.
.	.	8B-\J 8d\	.
=63	=63	=63	=63
*	*	*Xtremolo	*
4GGG/ 4DD 4GG	2.dd/	8d\L 8g 8b-	.
.	.	8d\ 8g 8b-	.
4DD/ 4D	.	8d\ 8g 8b-	.
.	.	8d\J 8g 8b-	.
4GG\ 4G	.	8d\L 8g 8b-	.
.	.	8d\ 8g 8b-	.
4G\ 4B- 4d	8.gg/L	8g\ 8b- 8dd	.
.	.	8g\J 8b- 8dd	.
.	16gg/Jk	.	.
=64	=64	=64	=64
4CC/ 4C	4gg/	8g\L 8b- 8cc	.
.	.	8g\J 8b- 8cc	.
4G\ 4B- 4c	8.cc/L	8d\L 8g 8b-	.
.	.	8d\J 8g 8b-	.
.	16cc/Jk	.	.
4CC/ 4C	8cc/L	8e\L 8g 8b-	.
.	16dd/L	8e\J 8g 8b-	.
.	16cc/JJ	.	.
4G\ 4B- 4c	8bn/L	8e\L 8g	.
.	8cc/J	8e\J 8g	.
!!LO:LB:g=original	!	!	!
=65	=65	=65	=65
4FF/ 4F	4ff/	8f\L 8a 8cc	.
.	.	8f\J 8a 8cc	.
4BBB-/ 4BB-	8.f/L	8B-\L 8d	.
.	.	8B-\J 8d	.
.	16g/Jk	.	.
4CC/ 4C	4a/	8A\L 8c 8f	.
.	.	8A\ 8c 8f	.
4C/	4g/	8B-\ 8c 8e	.
.	.	8B-\J 8c 8e	.
=66	=66	=66	=66
4FF/	4A/ 4c 4f	4ryy	.
8.BB-\L 8.F	8.d/L 8.f	8.ryy	p
16BB-\Jk 16F	16d/Jk 16g	16ryy	.
4C/	4.c/ 4.f 4.a	4r	.
4CC/ 4C	.	4B-\ 4e	.
.	8g/	.	.
=67	=67	=67	=67
4FF/	4A/ 4f	2ryy	.
4r	8.f/L 8.a	.	mf
.	16g/Jk 16b-	.	.
4C/	4.cc/	[4c\ 4f 4a	.
4CC/	.	4c\] 4e 4g	.
.	8b-/	.	.
!!LO:LB:g=original	!	!	!
=68	=68	=68	=68
4FF/	4c/ 4f 4a	2ryy	.
4r	8.f/L 8.a	.	p
.	16g/Jk 16b-	.	.
4c\	4.cc/	4f\ 4a	.
4C/	.	4e\ 4g	.
.	8b-/	.	.
*	*v	*v	*
=69	=69	=69
4F\	4f/ 4a	.
4r	8.cc\L	.
.	16cc\Jk	.
4r	4aa\	.
8.AAA/L 8.AA	8.a\L 8.cc#X 8.ee 8.gg	>
16AAA/Jk 16AA	16a\Jk 16cc# 16ee 16gg	]]
=70	=70	=70
4DD/ 4D	4a\ 4dd 4ff	.
8.FFF/L 8.FF	8.f\L 8.a 8.ccn 8.ee-X	>
16FFF/Jk 16FF	16f\Jk 16a 16cc 16ee-	.
4BBB-/ 4BB-	4f\ 4b- 4dd	]
8.DD/L 8.D	8.d/L 8.f#X 8.a 8.cc	>
16DD/Jk 16D	16d/Jk 16f# 16a 16cc	]]
!!LO:PB:g=original	!	!
=71	=71	=71
4GG\ 4G	4d/ 4g 4b-	.
8.AA\L 8.A	8.c/L 8.f#X 8.a	.
16AA\Jk 16A	16c/Jk 16f# 16a	.
4BB-\ 4B-	4d/ 4g	>
8.BBn/L	8.d/L 8.fn 8.a-X 8.dd	.
16BB/Jk	16d/Jk 16f 16a- 16dd	]]
=72	=72	=72
2C/	2.ASsS/ 2.c 2.f	.
2CC/	.	.
.	8.B-/L 8.c 8.e 8.a	.
.	16g/Jk	.
=73	=73	=73
4FF/	4A/ 4c 4f	p
8.F\L	8.f/L	.
16F\Jk	16f/Jk	.
4F\	4f/	>
8.FF/L	8.d/L 8.f 8.b-	.
16FF/Jk	16d/Jk 16f 16b-	]]
=74	=74	=74
4F\	4c/ 4f 4a	p
8.F\L	8.f/L	.
16F\Jk	16f/Jk	.
4F\	4f/	>
8.FF/L	8.d/L 8.f 8.b-	.
16FF/Jk	16d/Jk 16f 16b-	]]
!!LO:LB:g=original	!	!
=75	=75	=75
4F\	4c/ 4f 4a	.
8.F\L	8.f/L	.
16F\Jk	16f/Jk	.
4F\	4f/	.
8.D-X\L 8.A-X 8.d-X	8.f/L 8.a-X 8.dd-X	.
16D-\Jk 16A- 16d-	16f/Jk 16a- 16dd- 16ff	.
=76	=76	=76
8AA-X\ 8E-X 8A-X 8c	8e-X/ 8a-X 8cc 8ee-X	.
16A-\LL	16a-/LL	.
16A-\JJ	16a-/JJ	.
8A-\L	8a-/L	.
8A-\J	8a-/J	.
4A-\	4a-/	.
4D-X\ 4A-X 4d-X	8.f/L 8.a- 8.dd-X	.
.	16f/Jk 16a- 16dd- 16ff	.
=77	=77	=77
8AA-X\ 8E-X 8A-X 8c	8e-X/ 8a-X 8cc 8ee-X	.
16A-\LL	16a-/LL	.
16A-\JJ	16a-/JJ	.
8A-\L	8a-/L	.
8A-\J	8a-/J	.
4A-\	4a-/	.
8.A-\L 8.c	8.a-\L 8.cc 8.ff	<
16E-\Jk 16c	16a-\Jk 16cc 16ff 16aa-X	.
!!LO:LB:g=original	!	!
=78	=78	=78
8C\L 8c	8g\ 8cc 8een 8gg	.
16c\L	16cc\LL	.
16c\JJ	16cc\JJ	.
8c\L	8cc\L	.
8c\J	8cc\J	.
4c\	4cc\	.
8.AA-X/L 8.A-X	8.f\L 8.cc 8.ff	.
16FF/Jk 16F	16a-y\Jk 16cc 16ff 16aa-X	.
=79	=79	=79
4CC/ 4C	4g\ 4cc 4ee 4gg	.
*8ba	*	*
4CCC/	4cc\ 4ee 4gg 4ccc	.
*X8ba	*	*
2r	2r	.
=80	=80	=80
!LO:TX:t=P:problem:mixed beam	!	!
8FFF/L 8FF	2.ff\ 2.aa 2.ccc 2.fff	.
8F\ 8A 8c 8f	.	.
8F\ 8A 8c 8f	.	.
8F\J 8A 8c 8f	.	.
*tremolo	*	*
8F\L 8A 8c 8f	.	.
8F\ 8A 8c 8f	.	.
8F\ 8A 8c 8f	8.ee\L 8.eee	.
8F\J 8A 8c 8f	.	.
.	16gg\Jk 16ggg	.
!!LO:LB:g=original	!	!
=81	=81	=81
!LO:TX:t=P:problem:mixed beam	!	!
8BBB-/L 8BB-	4ff\ 4fff	.
8F\ 8B- 8d 8f	.	.
8F\ 8B- 8d 8f	2ee\ 2bb- 2ccc 2eee	.
8F\J 8B- 8d 8f	.	.
8F\L 8B- 8d 8f	.	.
8F\ 8B- 8d 8f	.	.
8F\ 8B- 8d 8f	8.ee\L 8.eee	.
8F\J 8B- 8d 8f	.	.
.	16dd\Jk 16ddd	.
=82	=82	=82
!LO:TX:t=P:problem:mixed beam	!	!
8CC/L 8C	4cc\ 4ccc	.
8F\ 8A 8c 8f	.	.
8F\ 8A 8c 8f	2cc\ 2ff 2aa 2ccc	.
8F\J 8A 8c 8f	.	.
8F\L 8A 8c 8f	.	.
8F\ 8A 8c 8f	.	.
8F\ 8A 8c 8f	8.b-\L 8.bb-	.
8F\J 8A 8c 8f	.	.
.	16a\Jk 16aa	.
=83	=83	=83
*	*ped	*
!LO:TX:t=P:problem:mixed beam	!	!
8CC/L 8C	2g\ 2cc 2ff 2gg	.
8F\ 8B- 8c 8f	.	.
8F\ 8B- 8c 8f	.	.
8F\J 8B- 8c 8f	.	.
*	*ped	*
8F\L 8B- 8c 8e	2cc\ 2gg 2ccc	.
8F\ 8B- 8c 8e	.	.
8F\ 8B- 8c 8e	.	.
8F\J 8B- 8c 8e	.	.
!!LO:LB:g=original	!	!
=84	=84	=84
8FFF/ 8FF	4ff\ 4aa 4ccc 4fff	.
*Xtremolo	*	*
16F\LL 16A 16c 16f	.	.
16F\JJ 16A 16c 16f	.	.
8C\L 8F 8A 8c	2ff\ 2aa 2ccc 2fff	sf
8C\J 8F 8A 8c	.	.
8AA/L 8C 8F 8A	.	.
8AA/J 8C 8F 8A	.	.
8FF/L 8AA 8C 8F	8.ee\L 8.eee	.
8FF/J 8AA 8C 8F	.	.
.	16gg\Jk 16ggg	.
=85	=85	=85
8BBB-/L 8DD 8GG 8BB-	4ff\ 4bb- 4ddd 4fff	.
8BBB-/J 8DD 8GG 8BB-	.	.
8DD/L 8FF 8BB- 8D	2ff\ 2bb- 2ddd 2fff	sf
8DD/J 8FF 8BB- 8D	.	.
8FF/L 8BB- 8D 8F	.	.
8FF/J 8BB- 8D 8F	.	.
8BB-\L 8D 8F 8B-	8.ee\L 8.eee	.
8BB-\J 8D 8F 8B-	.	.
.	16dd\Jk 16ddd	.
=86	=86	=86
8C\L 8E 8A 8c	4cc\ 4ff 4aa 4ccc	.
8C\J 8E 8A 8c	.	.
8CC/L 8EE 8AA 8C	2cc\ 2ff 2aa 2ccc	sf
8CC/J 8EE 8AA 8C	.	.
8FF/L 8AA 8C 8F	.	.
8FF/J 8AA 8C 8F	.	.
8AA/L 8C 8F 8A	8.b-\L 8.bb-	.
8AA/J 8C 8F 8A	.	.
.	16a\Jk 16aa	.
!!LO:LB:g=original	!	!
=87	=87	=87
*	*ped	*
!LO:TX:t=P:problem:mixed beam	!	!
8CC/L 8C	2g\ 2cc 2ff 2gg	.
8F\ 8B- 8c 8f	.	.
8F\ 8B- 8c 8f	.	.
8F\J 8B- 8c 8f	.	.
8qCC/ 8qC	.	.
*	*ped	*
8E\L 8G 8B- 8c 8e	2cc\ 2ccc	.
8E\ 8G 8B- 8c 8e	.	.
8E\ 8G 8B- 8c 8e	.	.
8E\J 8G 8B- 8c 8e	.	.
=88	=88	=88
4FF/ 4F	4f/ 4a 4cc 4ff	.
8.FF/L 8.F	4r	.
16FF/Jk 16F	.	.
4FF/ 4F	2r	.
4FF/ 4F	.	.
=89	=89	=89
*tremolo	*	*
32FF/LLL 32BB- 32D 32F	[2f\ [2b- (2dd [2ff	<
32FF/ 32BB- 32D 32F	.	.
32FF/ 32BB- 32D 32F	.	.
32FF/ 32BB- 32D 32F	.	.
32FF/ 32BB- 32D 32F	.	.
32FF/ 32BB- 32D 32F	.	.
32FF/ 32BB- 32D 32F	.	.
32FF/ 32BB- 32D 32F	.	.
32FF/ 32BB- 32D 32F	.	.
32FF/ 32BB- 32D 32F	.	.
32FF/ 32BB- 32D 32F	.	.
32FF/ 32BB- 32D 32F	.	.
32FF/ 32BB- 32D 32F	.	.
32FF/ 32BB- 32D 32F	.	.
32FF/ 32BB- 32D 32F	.	.
32FF/JJJ 32BB- 32D 32F	.	.
32FF/LLL 32BB- 32D 32F	2f\] 2b-] 2dd-X) 2ff]	.
32FF/ 32BB- 32D 32F	.	.
32FF/ 32BB- 32D 32F	.	.
32FF/ 32BB- 32D 32F	.	.
32FF/ 32BB- 32D 32F	.	.
32FF/ 32BB- 32D 32F	.	.
32FF/ 32BB- 32D 32F	.	.
32FF/ 32BB- 32D 32F	.	.
32FF/ 32BB- 32D 32F	.	.
32FF/ 32BB- 32D 32F	.	.
32FF/ 32BB- 32D 32F	.	.
32FF/ 32BB- 32D 32F	.	.
32FF/ 32BB- 32D 32F	.	.
32FF/ 32BB- 32D 32F	.	.
32FF/ 32BB- 32D 32F	.	.
32FF/JJJ 32BB- 32D 32F	.	[[
=90	=90	=90
4FFF/ 4AAA 4CC 4FF	4f\ 4a 4cc 4ff	ff
4r	4r	.
2r	2r	.
==	==	==
*-	*-	*-
!!!system-decoration: {(s1,s2)}
!!!RDF**kern: > = above
!!!RDF**kern: < = below
!!!ENC: Berenika Jozajtis
!!!END: 2023-07-11
!!!ENC: Jan Barakat
!!!END: 2023-07-22
!!!YEC: Copyright 2022 Narodowy Instytut Fryderyka Chopina (https://polishscores.org)
!!!YEM: License CC-BY-4.0 (https://creativecommons.org/licenses/by/4.0)
